Papirus/64x64/apps/kmines.svg

<?xml version="1.0" encoding="UTF-8" standalone="no"?>
<svg xmlns="http://www.w3.org/2000/svg" height="64" width="64" version="1">
 <path style="opacity:0.2;enable-background:new" d="m 5.1337626,23.486813 -0.2148342,0.37109 C 4.6034969,24.416488 4.7410872,25.189547 5.22752,25.607856 L 9.6648002,29.50175 C 9.709975,28.888407 9.7736853,28.281383 9.8640128,27.67758 L 5.227538,23.60769 c -0.039199,-0.034 -0.059198,-0.084 -0.093797,-0.121997 z m 53.7325494,0 c -0.03458,0.038 -0.05458,0.0874 -0.09374,0.121097 l -4.636675,4.07029 c 0.09026,0.603803 0.154016,1.210827 0.199215,1.82417 l 4.43748,-3.894494 c 0.486367,-0.418309 0.624003,-1.191368 0.308592,-1.749953 l -0.213994,-0.37199 z m -49.2206713,8.51577 c -0.016659,0.332251 -0.042967,0.661682 -0.042967,0.999973 0,0.507426 0.026069,1.005173 0.062498,1.499959 L 9.8643848,34.32674 C 9.7495879,33.560761 9.6847897,32.786782 9.6455907,32.002803 Z m 44.7087933,0 c -0.03932,0.783859 -0.104138,1.557998 -0.218755,2.324137 l 0.199215,0.175775 c 0.03644,-0.494786 0.0625,-0.992533 0.0625,-1.499959 0,-0.338291 -0.0263,-0.667722 -0.04296,-0.999973 z m -49.2206714,8.51577 c -0.3945894,0.433988 -0.5047864,1.11397 -0.2147942,1.627956 l 5.6014486,9.710738 c 0.324771,0.550785 1.055632,0.821698 1.660115,0.613263 l 5.820043,-1.969947 c 1.748773,1.399903 3.742699,2.541732 5.863042,3.370909 l 1.179648,5.992039 C 25.163062,60.490694 25.760046,60.9913 26.398708,61 l 11.202898,0 c 0.638643,-0.008 1.235687,-0.509306 1.355443,-1.136689 l 1.179648,-5.992039 c 2.117943,-0.829977 4.111889,-1.971946 5.859842,-3.371908 l 5.820243,1.968706 c 0.604464,0.208435 1.335344,-0.0624 1.660115,-0.613263 l 5.601449,-9.710738 c 0.290012,-0.513586 0.179795,-1.195108 -0.214834,-1.628856 l -5.386655,9.339548 c -0.324771,0.550865 -1.055651,0.821698 -1.660115,0.613263 l -5.821843,-1.969946 c -1.748772,1.399902 -3.742699,2.537731 -5.863041,3.367109 l -1.179649,5.995838 c -0.117996,0.625983 -0.71598,1.127969 -1.353963,1.135969 l -11.202898,0 c -0.638642,-0.0086 -1.235646,-0.509306 -1.355443,-1.136689 L 23.861937,51.864467 C 21.739994,51.034489 19.746848,49.89652 17.998095,48.496558 l -5.820243,1.967946 c -0.604383,0.209995 -1.335164,-0.062 -1.659955,-0.611983 L 5.1312426,40.512773 Z"/>
 <path style="fill:#5d5d5d;enable-background:new" d="m 26.268392,4.002566 c -0.593604,0.064598 -1.11647,0.5502851 -1.224967,1.1374493 l -1.181188,5.9934377 c -2.120543,0.829298 -4.113489,1.968707 -5.862242,3.368709 l -5.817843,-1.968746 c -0.604783,-0.208395 -1.337964,0.0616 -1.662755,0.612583 l -5.5998487,9.712138 c -0.3154314,0.558585 -0.1801951,1.331624 0.3062318,1.749933 l 4.6372748,4.06849 c -0.1631956,1.09091 -0.2624929,2.188541 -0.2624929,3.32491 0,1.136409 0.099197,2.23394 0.2624929,3.32491 l -4.6372748,4.06869 c -0.4863669,0.418309 -0.6216632,1.191348 -0.3062318,1.749933 l 5.5998487,9.712138 c 0.324771,0.550785 1.057952,0.820898 1.662435,0.612463 l 5.818443,-1.968667 c 1.748773,1.399903 3.741699,2.539332 5.862242,3.36871 l 1.181188,5.993438 c 0.119797,0.627383 0.717561,1.128749 1.356203,1.137449 l 11.199498,0 c 0.638643,-0.008 1.236447,-0.510066 1.356183,-1.137449 l 1.181208,-5.993438 c 2.120543,-0.829298 4.113489,-1.968727 5.862242,-3.36871 l 5.818443,1.968667 c 0.604464,0.208435 1.337664,-0.0616 1.662435,-0.612463 l 5.599849,-9.712138 c 0.315411,-0.558585 0.180195,-1.331624 -0.306232,-1.749933 l -4.637275,-4.06869 c 0.163196,-1.09091 0.262473,-2.188341 0.262473,-3.32491 0,-1.136409 -0.0994,-2.23394 -0.262473,-3.32491 l 4.637275,-4.06849 c 0.486367,-0.418309 0.621643,-1.191348 0.306232,-1.749933 l -5.599849,-9.712138 c -0.323991,-0.551585 -1.057971,-0.821778 -1.661955,-0.613383 l -5.818443,1.968666 C 44.249566,13.10032 42.25762,11.960951 40.137677,11.131573 L 38.955709,5.1381353 C 38.835713,4.5107522 38.237729,4.0093658 37.599746,4.000766 l -11.199498,0 c -0.0438,-0.00102 -0.0876,-0.00102 -0.131196,0 z"/>
 <path style="fill:#ffffff;enable-background:new;fill-opacity:1;opacity:0.1" d="M 26.269531 4 L 26.267578 4.0019531 C 25.673974 4.0665511 25.151466 4.5534608 25.042969 5.140625 L 23.861328 11.132812 C 21.740785 11.96211 19.748753 13.101951 18 14.501953 L 12.181641 12.533203 C 11.576858 12.324808 10.844322 12.595501 10.519531 13.146484 L 4.9199219 22.857422 C 4.7181344 23.214759 4.7183426 23.653257 4.859375 24.037109 C 4.881923 23.977899 4.8885637 23.912953 4.9199219 23.857422 L 10.519531 14.144531 C 10.844322 13.593548 11.576858 13.324808 12.181641 13.533203 L 18 15.501953 C 19.748753 14.101951 21.740785 12.96211 23.861328 12.132812 L 25.042969 6.1386719 C 25.151466 5.5515077 25.673974 5.0665511 26.267578 5.0019531 L 26.269531 5 C 26.313127 4.99898 26.356591 4.99898 26.400391 5 L 37.599609 5 C 38.237592 5.0085998 38.835082 5.5093356 38.955078 6.1367188 L 40.136719 12.130859 C 42.256662 12.960237 44.250047 14.099038 46 15.5 L 51.818359 13.53125 C 52.422343 13.322855 53.156478 13.592946 53.480469 14.144531 L 59.080078 23.857422 C 59.11117 23.912484 59.118197 23.976472 59.140625 24.035156 C 59.280725 23.651837 59.281442 23.214033 59.080078 22.857422 L 53.480469 13.146484 C 53.156478 12.594899 52.422343 12.324808 51.818359 12.533203 L 46 14.501953 C 44.250047 13.100991 42.256662 11.960237 40.136719 11.130859 L 38.955078 5.1386719 C 38.835082 4.5112888 38.237592 4.0085998 37.599609 4 L 26.400391 4 C 26.356591 3.99898 26.313127 3.99898 26.269531 4 z M 9.7558594 29.582031 C 9.6650192 30.377116 9.5996094 31.178361 9.5996094 32.001953 C 9.5996094 32.171101 9.6168142 32.334421 9.6210938 32.501953 C 9.6455325 31.543455 9.7243098 30.604761 9.8632812 29.675781 L 9.7558594 29.582031 z M 54.242188 29.583984 L 54.136719 29.675781 C 54.275586 30.604812 54.352495 31.54345 54.376953 32.501953 C 54.381235 32.334408 54.398438 32.171125 54.398438 32.001953 C 54.398438 31.178962 54.332882 30.378469 54.242188 29.583984 z M 54.242188 35.417969 C 54.207644 35.720515 54.181728 36.025302 54.136719 36.326172 L 58.773438 40.394531 C 58.949321 40.545784 59.061277 40.749695 59.140625 40.966797 C 59.345339 40.430267 59.211728 39.771445 58.773438 39.394531 L 54.242188 35.417969 z M 9.7558594 35.419922 L 5.2265625 39.394531 C 4.7887348 39.771093 4.6555165 40.428576 4.859375 40.964844 C 4.9388036 40.748663 5.0513338 40.54524 5.2265625 40.394531 L 9.8632812 36.326172 C 9.8183353 36.025891 9.7903614 35.721871 9.7558594 35.419922 z"/>
</svg>

<?xml version="1.0" encoding="UTF-8" standalone="no"?>
<svg xmlns="http://www.w3.org/2000/svg" height="64" width="64" version="1">
 <path style="enable-background:new;fill:#5d5d5d" d="m26.268 4.0026c-.59360.064598-1.1165.55029-1.225 1.1374l-1.1812 5.9934c-2.1205.82930-4.1135 1.9687-5.8622 3.3687l-5.8178-1.9687c-.60478-.20840-1.338.0616-1.6628.61258l-5.5998 9.7121c-.31543.55858-.18020 1.3316.30623 1.7499l4.6373 4.0685c-.16320 1.0909-.26249 2.1885-.26249 3.3249s.099197 2.2339.26249 3.3249l-4.6373 4.0687c-.48637.41831-.62166 1.1913-.30623 1.7499l5.5998 9.7121c.32477.55078 1.058.82090 1.6624.61246l5.8184-1.9687c1.7488 1.3999 3.7417 2.5393 5.8622 3.3687l1.1812 5.9934c.11980.62738.71756 1.1287 1.3562 1.1374h11.199c.63864-.008 1.2364-.51007 1.3562-1.1374l1.1812-5.9934c2.1205-.82930 4.1135-1.9687 5.8622-3.3687l5.8184 1.9687c.60446.20844 1.3377-.0616 1.6624-.61246l5.5998-9.7121c.31541-.55858.18020-1.3316-.30623-1.7499l-4.6373-4.0687c.16320-1.0909.26247-2.1883.26247-3.3249 0-1.1364-.0994-2.2339-.26247-3.3249l4.6373-4.0685c.48637-.41831.62164-1.1913.30623-1.7499l-5.5998-9.7121c-.32399-.55158-1.058-.82178-1.662-.61338l-5.8184 1.9687c-1.746-1.402-3.738-2.541-5.858-3.37l-1.182-5.9939c-.120-.6273-.718-1.1287-1.356-1.1373h-11.199c-.0438-.00102-.0876-.00102-.13120 0z"/>
 <path style="opacity:.1;enable-background:new;fill:#ffffff" d="m26.27 4l-.002.0020c-.594.0646-1.117.5515-1.225 1.1386l-1.182 5.9924c-2.12.829-4.112 1.969-5.861 3.369l-5.818-1.969c-.605-.208-1.338.063-1.662.613l-5.6001 9.711c-.2018.358-.2016.796-.0605 1.18.0224-.059.0293-.122.0605-.178l5.6001-9.713c.324-.550 1.057-.821 1.662-.613l5.818 1.969c1.749-1.4 3.741-2.538 5.861-3.367l1.182-5.9944c.108-.5871.631-1.0721 1.225-1.1367l.002-.0019c.043-.0011.087-.0011.130 0h11.2c.638.0086 1.235.5093 1.355 1.1367l1.182 5.9943c2.12.829 4.113 1.968 5.863 3.369l5.818-1.969c.604-.208 1.338.062 1.662.613l5.6 9.713c.031.055.038.118.061.176.140-.383.140-.821-.061-1.178l-5.6-9.711c-.324-.551-1.058-.821-1.662-.613l-5.818 1.969c-1.75-1.401-3.743-2.542-5.863-3.371l-1.182-5.9923c-.120-.6274-.717-1.1301-1.355-1.1387h-11.2c-.043-.0010-.087-.0010-.130 0zm-16.514 25.584c-.0907.794-.1563 1.595-.1563 2.418 0 .169.0172.332.0215 0.5.0245-.958.1033-1.896.2422-2.824l-.1074-.094zm44.486.002l-.105.092c.139.928.215 1.866.240 2.824.004-.168.021-.331.021-0.5 0-.822-.065-1.622-.156-2.416zm0 5.832c-.034.303-.060.607-.105.908l4.636 4.07c.176.152.288.356.368.573.205-.537.071-1.197-.368-1.574l-4.531-3.977zm-44.486.002l-4.5293 3.975c-.4383.377-.5721 1.035-.3672 1.572.0794-.216.1919-.420.3672-.571l4.6367-4.07c-.0450-0.3-.0729-.604-.1074-.906z"/>
 <path style="opacity:.2;enable-background:new" d="m59.141 24.035c-.07932.21741-.19112.42278-.36719.57422l-4.6367 4.0684c.04493.3006.07095.60398.10547.90625l4.5312-3.9766c.43842-.37708.57228-1.0356.36719-1.5723zm-54.281.002c-.20426.53639-.070882 1.1936.36719 1.5703l4.5312 3.9746c.03447-.30158.060605-.60439.10547-.90430l-4.6373-4.069c-.1755-.151-.2878-.355-.3672-.572zm4.7617 8.4648c-.00428.16753-.021484.33086-.021484.5 0 .82326.065475 1.6232.15625 2.418l.10742-.09375c-.1396-.928-.2183-1.866-.2428-2.824zm44.756 0c-.02449.95810-.10133 1.8957-.24023 2.8242l.10547.0918c.09063-.79410.15625-1.5933.15625-2.416 0-.16915-.0172-.33247-.02148-.5zm-49.519 8.463c-.14103.38385-.14124.82235.060547 1.1797l5.5996 9.7129c.32477.55078 1.0576.81976 1.6621.61133l5.818-1.969c1.7488 1.3999 3.7427 2.5398 5.8633 3.3691l1.1797 5.9941c.120.628.719 1.128 1.357 1.137h11.199c.63864-.008 1.2357-.50934 1.3555-1.1367l1.1816-5.9941c2.121-.829 4.115-1.969 5.864-3.369l5.8184 1.9688c.60446.20844 1.3373-.06047 1.6621-.61133l5.5996-9.7129c.20136-.35661.20064-.79442.06055-1.1777-.02248.05893-.02933.12246-.06055.17773l-5.5996 9.7129c-.32477.55086-1.0576.82172-1.6621.61328l-5.818-1.969c-1.7488 1.4-3.7427 2.5379-5.8633 3.3672l-1.1816 5.9941c-.11974.62738-.71683 1.1307-1.3555 1.1387h-11.2c-.63864-.0087-1.2376-.51129-1.3574-1.1387l-1.1797-5.9941c-2.12-.829-4.114-1.967-5.863-3.367l-5.8184 1.9688c-.60448.20844-1.3373-.0625-1.6621-.61328l-5.6001-9.713c-.03148-.05575-.037946-.12024-.060547-.17969z"/>
</svg>
